X: 15
T:Deildy Aberteifi
T:Cardigan Bower
M:6/8
L:1/8
Q:130
S:Cadw Twmpath Collection
R:Jig
A:Wales
Z:brian_martin12345@yahoo.com
K:D
dfe dAF|dfe dAF|Gee Gee|Ged cBA|
dfe dAF|dfe dAF|Gee Gee|cBcd2z:||
fdf ecA|fdf ecA|Bcd efg|afde2^e|
fdf ecA|fdf ecA|Bcd efg|ABcd3:||
